X: 72
T:Andy's Jig
R:jig
M:6/8
L:1/8
K:C
D|EDE CEG|FGF Ddc|BdB GAB|cBA G2F|
EDE CEG|FEF Ddc|BdB GAB|c3 c2:|
|:e|g^fa g2e|cBA G2G|cBc ABc|ed^c d2e|
g^fa g2e|cBA G2A|BdB GAB|c3 c2:|
